frontend/public/svg/interface/cloud-up.svg

<svg width="163" height="129" viewBox="0 0 163 129" fill="none" xmlns="http://www.w3.org/2000/svg">
<g clip-path="url(#clip0)">
<path d="M127.159 38.3676C125.218 38.0504 123.234 37.8869 121.315 37.7279C120.606 37.6699 119.897 37.6105 119.19 37.5447C119.164 37.3427 119.143 37.1708 119.138 36.9982C118.662 22.6915 112.204 12.2751 99.9348 6.03624C84.0316 -2.05232 68.0532 -1.86476 52.4485 6.59579C41.4144 12.5774 34.6583 22.2282 32.3676 35.2787C32.0599 37.2448 31.8626 39.2271 31.7767 41.2155C31.7274 42.0058 31.6795 42.7908 31.6159 43.5667C31.3425 43.6319 31.0671 43.691 30.7917 43.7484L30.4923 43.8136C15.7691 46.9806 6.31414 56.1076 2.38986 70.9396C-0.478839 81.7789 3.02103 91.5334 12.244 98.4049C18.63 103.161 26.1702 105.676 34.6531 105.876C43.5884 106.088 52.6733 106.149 61.4602 106.208C65.1637 106.233 68.8671 106.262 72.5711 106.294C73.2969 106.301 74.0233 106.299 74.806 106.297H75.2778C75.2726 107.1 75.259 107.881 75.2454 108.643C75.2072 110.769 75.1715 112.778 75.3303 114.777C75.6011 118.012 76.0761 121.227 76.752 124.402C77.0267 125.345 77.4901 126.223 78.1128 126.981C78.4368 127.445 78.8029 127.971 79.1768 128.585C79.2364 128.683 79.32 128.764 79.4192 128.82C79.5189 128.876 79.6311 128.906 79.7451 128.906H79.7853C79.9058 128.898 80.0218 128.857 80.1216 128.788C80.2207 128.72 80.2998 128.625 80.3503 128.515C80.6043 127.956 80.8441 127.5 81.0566 127.098C81.4454 126.482 81.7072 125.793 81.8265 125.074C82.1505 121.22 82.4149 117.104 82.6928 111.729C82.7577 110.455 82.744 109.199 82.7272 107.744C82.7207 107.239 82.7149 106.712 82.7116 106.156L83.8132 106.151C84.8345 106.147 85.6879 106.143 86.542 106.16C99.7884 106.417 114.032 105.913 130.088 104.622C132.282 104.446 134.241 104.224 136.076 103.944C146.232 102.396 156.205 93.9713 160.328 83.4578C164.242 73.4747 162.492 63.0105 155.4 53.9948C148.722 45.4958 139.483 40.3854 127.159 38.3676ZM84.3258 63.3448L96.1842 69.2971C96.549 69.4802 96.9178 69.6587 97.2858 69.8366C98.2001 70.2568 99.0924 70.7266 99.9575 71.2426C101.528 72.2198 102.744 71.9495 103.893 70.3689C103.974 70.2575 104.019 70.1246 104.022 69.9871C104.024 69.8496 103.985 69.7148 103.91 69.6008C103.683 69.26 103.471 68.8971 103.257 68.5316C102.783 67.6273 102.185 66.7947 101.479 66.0598C98.6848 63.3321 95.7559 60.7475 92.7032 58.3162C90.8752 56.8991 88.8903 55.6503 86.9716 54.4424C85.9996 53.83 85.0237 53.2163 84.0673 52.5811C81.0955 50.6064 78.3286 50.6505 75.3594 52.7217C69.3473 56.9129 63.1807 61.7056 58.7982 68.3401C58.5167 68.7903 58.278 69.2665 58.0854 69.7623C57.9993 69.965 57.9137 70.1682 57.8211 70.3669C57.7623 70.492 57.7436 70.6321 57.7675 70.7683C57.7914 70.9044 57.8568 71.0302 57.9545 71.1279L58.6952 71.8667C58.7999 71.971 58.9361 72.0368 59.0823 72.055C59.2285 72.0733 59.3765 72.042 59.5033 71.9671C62.7595 69.9513 65.9058 67.7622 68.9287 65.4076C71.0937 63.7845 73.3221 62.1134 75.6627 60.5367V96.3656C75.4994 96.3845 75.3387 96.4041 75.1884 96.423C74.6376 96.5103 74.0803 96.5539 73.523 96.5533L65.7982 96.3272C55.1455 96.0158 44.1308 95.6939 33.302 95.2848C28.4107 95.1968 23.65 93.6834 19.5975 90.9281C13.0812 86.4594 10.6629 80.6557 12.2058 73.1867C14.733 60.9439 22.2498 53.0926 34.5352 49.8487C37.4512 49.0793 38.7925 47.6621 39.1671 44.9551C39.2876 44.0853 39.458 43.1958 39.6207 42.3397C39.7257 41.7944 39.83 41.2487 39.924 40.7008C42.9903 22.8493 56.8691 11.5878 75.1151 11.5878C76.6211 11.5878 78.1607 11.6646 79.7205 11.821C84.5014 12.285 89.158 13.6226 93.462 15.768C98.0453 18.0619 101.48 21.1655 103.671 24.9925L103.865 25.3332C106.965 30.7493 110.171 36.3498 110.611 42.865C110.781 45.3877 112.829 47.0549 115.7 47.0028C123.598 46.9293 131.376 48.9426 138.258 52.8416C142.841 55.3818 146.578 59.2247 149 63.8894C152.254 69.9812 151.936 76.1446 148.054 82.2082C146.326 85.043 143.982 87.4464 141.196 89.2368C138.41 91.0278 135.256 92.1588 131.972 92.5452C129.257 92.9094 126.474 93.1693 123.783 93.4202C120.171 93.7576 116.435 94.1062 112.792 94.7128C106.165 95.8158 99.375 95.8809 92.8075 95.9448C90.0321 95.9715 87.1621 95.9988 84.3368 96.1037C84.1094 96.0953 83.8839 96.0627 83.6636 96.0073L83.0804 62.7238C83.497 62.9301 83.9124 63.1371 84.3258 63.3448Z" fill="black"/>
</g>
<defs>
<clipPath id="clip0">
<rect width="162" height="129" fill="white" transform="translate(0.777344)"/>
</clipPath>
</defs>
</svg>

<svg xmlns="http://www.w3.org/2000/svg" width="163" height="129" fill="none" viewBox="0 0 163 129"><g clip-path="url(#a)"><path fill="#000" d="M127.159 38.368c-1.941-.318-3.925-.481-5.844-.64q-1.064-.085-2.125-.183a6 6 0 0 1-.052-.547c-.476-14.306-6.934-24.723-19.203-30.962-15.903-8.088-31.882-7.9-47.486.56-11.035 5.981-17.79 15.632-20.081 28.683a53 53 0 0 0-.591 5.936c-.05.79-.098 1.576-.161 2.352q-.41.097-.824.181l-.3.066C15.77 46.98 6.314 56.108 2.39 70.94c-2.869 10.839.631 20.593 9.854 27.465 6.386 4.756 13.926 7.271 22.41 7.471 8.934.212 18.02.273 26.806.332q5.555.038 11.111.086c.726.007 1.452.005 2.235.003h.472c-.005.803-.019 1.584-.033 2.346-.038 2.126-.074 4.135.085 6.134.271 3.235.746 6.45 1.422 9.625a7.3 7.3 0 0 0 1.36 2.579c.325.464.69.99 1.065 1.604a.67.67 0 0 0 .568.321h.04a.67.67 0 0 0 .565-.391c.254-.559.494-1.015.707-1.417.388-.616.65-1.305.77-2.024.323-3.854.588-7.97.866-13.345.065-1.274.051-2.53.034-3.985q-.01-.756-.015-1.588l1.101-.005c1.022-.004 1.875-.008 2.729.009 13.246.257 27.49-.247 43.546-1.538a84 84 0 0 0 5.988-.678c10.156-1.548 20.129-9.973 24.252-20.486 3.914-9.983 2.164-20.447-4.928-29.463-6.678-8.5-15.917-13.61-28.241-15.627M84.326 63.345l11.858 5.952q.549.274 1.102.54 1.372.631 2.671 1.406c1.571.977 2.787.707 3.936-.874a.67.67 0 0 0 .017-.768c-.227-.341-.439-.704-.653-1.07a10.8 10.8 0 0 0-1.778-2.471 116 116 0 0 0-8.776-7.744c-1.828-1.417-3.813-2.666-5.731-3.874-.972-.612-1.948-1.226-2.905-1.86-2.971-1.976-5.738-1.931-8.708.14-6.012 4.19-12.178 8.984-16.56 15.618q-.424.677-.714 1.422c-.086.203-.171.406-.264.605a.67.67 0 0 0 .134.76l.74.74a.664.664 0 0 0 .808.1 107 107 0 0 0 9.426-6.56c2.165-1.622 4.393-3.294 6.734-4.87v35.829l-.475.057c-.55.087-1.108.13-1.665.13l-7.725-.226c-10.653-.311-21.667-.633-32.496-1.042a25.2 25.2 0 0 1-13.704-4.357c-6.517-4.469-8.935-10.272-7.392-17.741 2.527-12.243 10.044-20.094 22.33-23.338 2.915-.77 4.256-2.187 4.631-4.894.12-.87.291-1.76.454-2.615.105-.546.209-1.091.303-1.64 3.066-17.85 16.945-29.112 35.191-29.112 1.506 0 3.046.077 4.606.233a39.3 39.3 0 0 1 13.741 3.947c4.583 2.294 8.018 5.398 10.209 9.224l.194.341c3.1 5.416 6.306 11.017 6.746 17.532.17 2.523 2.218 4.19 5.089 4.138a44.9 44.9 0 0 1 22.558 5.839A26.7 26.7 0 0 1 149 63.889c3.254 6.092 2.936 12.256-.946 18.32a21.9 21.9 0 0 1-6.858 7.028 21.76 21.76 0 0 1-9.224 3.308c-2.715.364-5.498.624-8.189.875-3.612.338-7.348.686-10.991 1.293-6.627 1.103-13.417 1.168-19.984 1.232-2.776.027-5.646.054-8.471.159a3.3 3.3 0 0 1-.673-.097l-.584-33.283z"/></g><defs><clipPath id="a"><path fill="#fff" d="M.777 0h162v129h-162z"/></clipPath></defs></svg>
